src/images/tel.svg

<svg width="30" height="29" viewBox="0 0 30 29" fill="none" xmlns="http://www.w3.org/2000/svg">
<path d="M4.36574 0.00227718C3.88278 0.0251811 3.40855 0.230549 3.06078 0.612876L0.628422 3.28673C0.631823 3.27879 0.618897 3.27994 0.549981 3.37745C0.513243 3.42776 0.484695 3.48356 0.465395 3.54279C-0.524668 6.6965 0.139025 10.1657 1.75573 13.4652C3.3725 16.7647 5.95135 19.9223 8.91208 22.5133C11.8728 25.1044 15.2134 27.1315 18.3985 28.137C21.5836 29.1425 24.6719 29.1292 26.9606 27.4687C26.9855 27.4503 27.0089 27.43 27.0306 27.408C27.0906 27.348 27.0926 27.3404 27.0829 27.3494L27.0921 27.3379L29.5129 24.6756C30.2085 23.9109 30.1524 22.7089 29.3875 22.0133L23.6447 16.7903C22.8799 16.0947 21.678 16.1501 20.9823 16.9148L18.3839 19.7724C16.2747 19.1617 14.4714 18.1263 12.7371 16.5487C11.0026 14.9709 9.80091 13.2729 8.9936 11.2303L11.5913 8.37269C12.2869 7.60796 12.2315 6.40599 11.4667 5.71037L5.72381 0.487372C5.34145 0.13956 4.84947 -0.0207198 4.36646 0.00213877L4.36574 0.00227718ZM4.42033 1.17423C4.59823 1.1663 4.77923 1.2281 4.9271 1.36265L10.67 6.58564C10.9658 6.85469 10.9859 7.2842 10.7169 7.57998L7.84539 10.736C7.77321 10.8157 7.72417 10.9136 7.70357 11.0192C7.68298 11.1248 7.6916 11.234 7.7285 11.335C8.6 13.7133 10.0059 15.6643 11.9403 17.424C13.8748 19.1835 15.9484 20.3992 18.3985 21.0421C18.5028 21.0695 18.6127 21.0678 18.7161 21.0371C18.8195 21.0065 18.9126 20.9481 18.9852 20.8683L21.8574 17.7115C22.1264 17.4158 22.5552 17.3963 22.851 17.6654L28.5946 22.8884C28.8905 23.1574 28.9098 23.5862 28.6408 23.8819L26.2399 26.5211C24.3618 27.8693 21.7159 27.9448 18.7529 27.0094C15.7784 26.0704 12.5491 24.1254 9.69102 21.6241C6.8329 19.1228 4.34567 16.0681 2.81688 12.9482C1.30386 9.86025 0.75496 6.73852 1.58721 3.98698L3.93272 1.40926C4.06722 1.26139 4.24236 1.1822 4.42026 1.17392L4.42033 1.17423Z" fill="#FF6B09"/>
</svg>

<svg width="30" height="29" fill="none" xmlns="http://www.w3.org/2000/svg"><path d="M4.366.002a1.879 1.879 0 0 0-1.305.61L.628 3.288c.004-.008-.01-.007-.078.09a.59.59 0 0 0-.085.166c-.99 3.154-.326 6.623 1.29 9.922 1.618 3.3 4.196 6.457 7.157 9.048 2.96 2.591 6.301 4.618 9.486 5.624 3.186 1.005 6.274.992 8.563-.668a.595.595 0 0 0 .07-.061c.06-.06.062-.068.052-.059l.01-.011 2.42-2.662a1.894 1.894 0 0 0-.126-2.663l-5.742-5.223a1.894 1.894 0 0 0-2.663.125l-2.598 2.857c-2.11-.61-3.913-1.646-5.647-3.223-1.734-1.578-2.936-3.276-3.743-5.319l2.597-2.857a1.894 1.894 0 0 0-.124-2.663L5.724.487A1.88 1.88 0 0 0 4.366.002Zm.054 1.172a.703.703 0 0 1 .507.189l5.743 5.223a.69.69 0 0 1 .047.994l-2.872 3.156a.59.59 0 0 0-.116.599c.871 2.378 2.277 4.33 4.211 6.089 1.935 1.76 4.008 2.975 6.458 3.618a.59.59 0 0 0 .587-.174l2.872-3.156a.69.69 0 0 1 .994-.047l5.744 5.223a.69.69 0 0 1 .046.994l-2.401 2.64c-1.878 1.347-4.524 1.423-7.487.487-2.975-.939-6.204-2.884-9.062-5.385-2.858-2.501-5.345-5.556-6.874-8.676C1.304 9.86.755 6.738 1.587 3.987l2.346-2.578a.702.702 0 0 1 .487-.235Z" fill="#FF6B09"/></svg>
